static/images/mobile/copyright/wikipedia-wordmark-lad.svg

<?xml version="1.0" encoding="UTF-8"?>
<svg width="120px" height="23px" viewBox="0 0 120 23" version="1.1" xmlns="http://www.w3.org/2000/svg" xmlns:xlink="http://www.w3.org/1999/xlink">
    <title>lad-wordmark</title>
    <g id="Page-1" stroke="none" stroke-width="1" fill="none" fill-rule="evenodd">
        <path d="M2.90851783,2.47952342 C2.97538119,2.95054521 3.01836541,3.20914267 3.0374705,3.25531581 C3.13299252,3.56933034 3.30492598,3.7263376 3.55327088,3.7263376 L9.39904969,3.7263376 C10.8509048,3.7263376 11.9350399,3.90181611 12.651455,4.25277313 C13.6448621,4.75150014 14.1416377,5.6519859 14.1416377,6.95423043 L14.1416377,8.741356 L13.9983547,15.8065135 C13.4921045,16.8316462 12.7565959,17.7229013 11.791829,18.4802789 L11.9207816,9.30926966 C11.9398853,7.2497073 11.3046859,6.21992612 10.0151832,6.21992612 L0,6.21992612 C0.764148706,4.82536852 1.73365465,3.57856762 2.90851783,2.47952342 Z M3.96880713,7.72983356 C3.93062339,8.54259501 3.91151967,9.31840069 3.91151967,10.0572506 L3.83988021,15.5847789 C3.30497612,16.6561311 2.56469418,17.5935395 1.6190344,18.3970039 L1.61993872,18.2325482 C1.62521391,17.530162 1.65356805,14.8789412 1.70500113,10.2788856 C2.33542725,9.48465188 3.09002925,8.63496785 3.96880713,7.72983356 Z M25.8075223,3.87049501 L27.438464,4.93832769 C29.4761023,6.27112631 30.494942,7.50042884 30.494942,8.62623527 C30.494942,9.32168786 30.1610408,10.174327 29.4932383,11.1842524 C29.2706351,11.5236545 28.6413766,12.3514572 27.6054627,13.6676606 L26.0258259,14.1270976 C27.5326948,11.941693 28.2861292,10.3978182 28.2861292,9.49547298 C28.2861292,8.71730984 27.4256892,7.87708888 25.7048093,6.97481012 L24.0481121,6.11802381 C24.1166046,6.03524021 24.7030746,5.28606395 25.8075223,3.87049501 Z M19.4505482,3.87049501 L21.0814899,4.93832769 C23.1191282,6.27112631 24.1379679,7.50042884 24.1379679,8.62623527 C24.1379679,9.32168786 23.8040667,10.174327 23.1362642,11.1842524 C22.9051033,11.5236545 22.2715522,12.3514572 21.2356108,13.6676606 L19.6688518,14.1270976 C21.1757207,11.941693 21.9291551,10.3978182 21.9291551,9.49547298 C21.9291551,8.71730984 21.0687151,7.87708888 19.3478352,6.97481012 L17.691138,6.11802381 C17.7596305,6.03524021 18.3461005,5.28606395 19.4505482,3.87049501 Z M45.0617414,5.149902 L44.0086502,7.38497939 L42.5831344,7.38497939 L42.5831344,16.3129372 C42.1036837,16.8675726 41.4487383,17.4842991 40.6182984,18.1631166 L40.6182984,7.38517861 L33.5421275,7.38517861 C34.4581994,6.06898187 35.3871146,4.89761989 36.3288733,3.87109268 C36.371681,4.33467019 36.4273301,4.64096152 36.4958205,4.78996668 C36.5985609,5.03002981 36.7869161,5.15006138 37.060886,5.15006138 L41.2731476,5.15006138 C41.7012247,4.65337309 42.172104,4.23533784 42.6857856,3.89595565 L42.6857856,5.15006138 L45.0615765,5.15006138 L45.0617414,5.149902 Z M54.1977346,8.62633488 C54.1977346,9.32168786 53.8638334,10.174327 53.1960308,11.1842524 C52.96487,11.5236545 52.3313189,12.3514572 51.2953775,13.6676606 L49.7286185,14.1270976 C51.2354874,11.941693 51.9889218,10.3978182 51.9889218,9.49547298 C51.9889218,8.71730984 51.1284818,7.87708888 49.4076019,6.97481012 L47.7509047,6.11802381 C47.8193972,6.03524021 48.4058672,5.28606395 49.5103148,3.87049501 L51.1412565,4.93832769 C53.1788948,6.27112631 54.1977346,7.50042884 54.1977346,8.62623527 L54.1977346,8.62633488 Z M67.6998219,11.0767718 C67.6998219,12.0204889 67.6184654,13.2994642 67.4557936,14.9136978 C67.3102441,15.2944917 66.8393648,16.1347127 66.0431556,17.4343607 L56.9122105,17.4343607 C57.4259057,16.6893349 57.8839417,15.9443091 58.2863182,15.1992833 L65.773444,15.1992833 C65.9189935,14.4128856 65.9917682,13.638873 65.9917682,12.8772453 C65.9917682,11.5444467 65.7991342,10.2075308 65.4138662,8.86649762 C64.3522585,7.91454604 62.7726562,7.09086055 60.675059,6.39544116 C60.0586233,6.90868484 59.7504054,7.55436501 59.7504054,8.33248167 C59.7504054,8.82916996 59.9601652,9.26377388 60.3796846,9.63629341 C60.5766009,9.81013498 60.9747123,10.0626163 61.5740189,10.3937374 L60.3026241,12.2439169 C59.3950687,11.7058368 58.8342855,11.3415917 58.6202744,11.1511814 C58.0466478,10.6544931 57.7598345,10.1040081 57.7598345,9.49972638 C57.7598345,8.5477748 58.2007687,7.45918978 59.0826373,6.23397131 C59.8445882,5.1826741 60.576594,4.45006651 61.2786548,4.03614853 C62.5371718,4.38383166 63.757193,4.91778121 64.9387183,5.63799716 C66.0859716,6.33335014 66.9078813,7.02043539 67.4044475,7.69925291 C67.6013638,8.7919884 67.6998219,9.91782803 67.6998219,11.0767718 L67.6998219,11.0767718 Z M77.1685557,8.62633488 C77.1685557,9.32168786 76.8346544,10.174327 76.1668519,11.1842524 C75.9356911,11.5236545 75.30214,12.3514572 74.2661986,13.6676606 L72.6994396,14.1270976 C74.2063084,11.941693 74.9597429,10.3978182 74.9597429,9.49547298 C74.9597429,8.71730984 74.0993029,7.87708888 72.378423,6.97481012 L70.7217258,6.11802381 C70.7902183,6.03524021 71.3766883,5.28606395 72.4811359,3.87049501 L74.1120776,4.93832769 C76.1497159,6.27112631 77.1685557,7.50042884 77.1685557,8.62623527 L77.1685557,8.62633488 Z M83.5944515,8.5256279 L84.4037926,20.2708908 C84.052769,21.1649351 83.5348086,21.9554832 82.8499113,22.6425353 L81.8093889,11.4063855 C82.1860992,10.3467873 82.7811201,9.38653479 83.5944515,8.5256279 Z M83.2222329,3.95426808 L83.3249717,4.7241336 C83.3763412,5.00558853 83.5261696,5.14631599 83.7744568,5.14631599 L92.1605527,5.14631599 C92.8026684,5.14631599 93.3035271,5.41121553 93.6631289,5.9410146 C93.9627857,6.38803008 94.112614,6.91782916 94.112614,7.53041182 C94.112614,10.2458147 93.2350123,12.6133419 91.4798604,14.6331925 C90.2127582,16.0901732 88.2607312,17.1580391 85.6237794,17.8367902 C85.9148716,17.2324885 86.3086904,16.3591302 86.805236,15.2167153 C88.0209646,15.0097629 89.1682178,14.5254862 90.2469958,13.7638851 C91.4028343,12.952651 91.9807535,11.5619118 91.9807535,9.59166757 C91.9807535,8.11815145 91.5441118,7.38139338 90.6708284,7.38139338 L80.5382001,7.38139338 C81.2060026,6.03205929 82.1006802,4.88968419 83.2222329,3.95426808 Z M103.784296,8.62633488 C103.784296,9.32168786 103.450395,10.174327 102.782592,11.1842524 C102.551431,11.5236545 101.91788,12.3514572 100.881939,13.6676606 L99.31518,14.1270976 C100.822049,11.941693 101.575483,10.3978182 101.575483,9.49547298 C101.575483,8.71730984 100.715043,7.87708888 98.9941633,6.97481012 L97.3374661,6.11802381 C97.4059586,6.03524021 97.9924287,5.28606395 99.0968763,3.87049501 L100.727818,4.93832769 C102.765456,6.27112631 103.784296,7.50042884 103.784296,8.62623527 L103.784296,8.62633488 Z M114.498587,-1.77635684e-15 L114.498587,1.70395017 L108.781792,1.70395017 L108.781792,-1.77635684e-15 L114.498587,-1.77635684e-15 Z M120,14.9317275 L118.294948,17.4253957 L106.675094,17.4253957 L108.408749,14.9317275 L115.773278,14.9317275 C115.773278,14.7654829 115.778054,14.5253567 115.787607,14.2113488 C115.797159,13.8881036 115.801935,13.6433588 115.801935,13.4771142 C115.801935,10.1522897 115.596571,7.94958596 115.185843,6.86900304 C115.080774,6.60116829 114.999582,6.43492706 114.942268,6.37027936 C114.837199,6.26868916 114.636608,6.21789405 114.340495,6.21789405 L107.14791,6.21789405 C107.787889,4.8325671 108.666667,3.58576619 109.784243,2.47749135 L110.11378,3.72432545 L115.0712,3.72432545 C116.284318,3.72432545 117.105782,4.1353215 117.53559,4.95731359 C117.812595,5.49298309 117.951098,6.35651308 117.951098,7.54790356 C117.951098,9.63515785 117.88901,12.0964524 117.764834,14.9317872 L120,14.9317872 L120,14.9317275 Z" id="lad-wordmark" fill="#000000"></path>
    </g>
</svg>

<svg xmlns="http://www.w3.org/2000/svg" width="120" height="23"><path fill="#000" fill-rule="evenodd" d="M2.909 2.48c.066.47.11.73.128.775.096.314.268.471.516.471H9.4c1.452 0 2.536.176 3.252.527.994.499 1.49 1.399 1.49 2.701v1.787l-.143 7.066c-.506 1.025-1.241 1.916-2.206 2.673l.129-9.17c.019-2.06-.616-3.09-1.906-3.09H0a14.895 14.895 0 0 1 2.909-3.74Zm1.06 5.25a49.677 49.677 0 0 0-.057 2.327l-.072 5.528a8.855 8.855 0 0 1-2.221 2.812v-.164c.006-.703.035-3.354.086-7.954a34.493 34.493 0 0 1 2.264-2.55Zm21.839-3.86 1.63 1.068c2.038 1.333 3.057 2.562 3.057 3.688 0 .696-.334 1.548-1.002 2.558-.222.34-.852 1.167-1.888 2.484l-1.58.46c1.508-2.186 2.261-3.73 2.261-4.633 0-.778-.86-1.618-2.581-2.52l-1.657-.857c.069-.083.655-.832 1.76-2.248Zm-6.357 0 1.63 1.068c2.038 1.333 3.057 2.562 3.057 3.688 0 .696-.334 1.548-1.002 2.558-.23.34-.864 1.167-1.9 2.484l-1.567.46c1.507-2.186 2.26-3.73 2.26-4.633 0-.778-.86-1.618-2.581-2.52l-1.657-.857c.069-.083.655-.832 1.76-2.248Zm25.61 1.28L44.01 7.385h-1.426v8.928c-.48.555-1.134 1.171-1.965 1.85V7.385h-7.076a33.501 33.501 0 0 1 2.787-3.514c.043.464.098.77.167.919.103.24.29.36.565.36h4.212a6.848 6.848 0 0 1 1.413-1.254V5.15h2.376Zm9.137 3.476c0 .696-.334 1.548-1.002 2.558-.231.34-.865 1.167-1.9 2.484l-1.567.46c1.506-2.186 2.26-3.73 2.26-4.633 0-.778-.86-1.618-2.581-2.52l-1.657-.857c.068-.083.655-.832 1.76-2.248l1.63 1.068c2.038 1.333 3.057 2.562 3.057 3.688Zm13.502 2.45c0 .944-.082 2.223-.244 3.838-.146.38-.617 1.22-1.413 2.52h-9.13c.513-.745.97-1.49 1.373-2.235h7.487c.146-.786.219-1.56.219-2.322 0-1.333-.193-2.67-.578-4.01-1.062-.952-2.641-1.776-4.739-2.472-.616.514-.925 1.16-.925 1.937 0 .497.21.932.63 1.304.197.174.595.427 1.194.758l-1.271 1.85c-.908-.538-1.469-.902-1.683-1.093-.573-.497-.86-1.047-.86-1.651 0-.952.44-2.04 1.323-3.266.762-1.051 1.494-1.784 2.196-2.198 1.258.348 2.478.882 3.66 1.602 1.147.695 1.969 1.382 2.465 2.061a19.01 19.01 0 0 1 .296 3.378Zm9.469-2.45c0 .696-.334 1.548-1.002 2.558-.231.34-.865 1.167-1.9 2.484l-1.568.46c1.507-2.186 2.26-3.73 2.26-4.633 0-.778-.86-1.618-2.58-2.52l-1.657-.857c.068-.083.655-.832 1.76-2.248l1.63 1.068C76.15 6.271 77.17 7.5 77.17 8.626Zm6.425-.1.81 11.745a6.897 6.897 0 0 1-1.554 2.372l-1.04-11.237a8.134 8.134 0 0 1 1.784-2.88Zm-.372-4.572.103.77c.051.282.201.422.45.422h8.386c.642 0 1.143.265 1.502.795.3.447.45.977.45 1.59 0 2.715-.878 5.082-2.633 7.102-1.267 1.457-3.22 2.525-5.856 3.204.29-.605.685-1.478 1.181-2.62 1.216-.207 2.363-.692 3.442-1.453 1.156-.811 1.734-2.202 1.734-4.172 0-1.474-.437-2.21-1.31-2.21H80.538a10.428 10.428 0 0 1 2.684-3.428Zm20.562 4.672c0 .696-.334 1.548-1.001 2.558-.232.34-.865 1.167-1.901 2.484l-1.567.46c1.507-2.186 2.26-3.73 2.26-4.633 0-.778-.86-1.618-2.58-2.52l-1.658-.857c.069-.083.655-.832 1.76-2.248l1.63 1.068c2.038 1.333 3.057 2.562 3.057 3.688ZM114.5 0v1.704h-5.717V0h5.717ZM120 14.932l-1.705 2.493h-11.62l1.734-2.493h7.364c0-.167.005-.407.015-.72a27 27 0 0 0 .014-.735c0-3.325-.205-5.527-.616-6.608-.105-.268-.186-.434-.244-.499-.105-.101-.305-.152-.602-.152h-7.192a12.794 12.794 0 0 1 2.636-3.74l.33 1.246h4.957c1.213 0 2.035.411 2.465 1.233.277.536.415 1.4.415 2.59 0 2.088-.062 4.55-.186 7.385H120Z"/></svg>
